assets/icons/facebook-icon.svg

<svg width="40" height="40" viewBox="0 0 40 40" fill="none" xmlns="http://www.w3.org/2000/svg">
<path d="M20 38.3491C30.2826 38.3491 38.6182 30.0715 38.6182 19.8606C38.6182 9.64975 30.2826 1.37219 20 1.37219C9.71748 1.37219 1.38184 9.64975 1.38184 19.8606C1.38184 30.0715 9.71748 38.3491 20 38.3491Z" fill="#3F65A6"/>
<path d="M17.171 13.7797C17.171 14.3141 17.171 16.6974 17.171 16.6974H15.0182V20.2651H17.171V30.0437H21.5928V20.2579H24.5601C24.5601 20.2579 24.8364 18.5462 24.9746 16.6757C24.5892 16.6757 21.6146 16.6757 21.6146 16.6757C21.6146 16.6757 21.6146 14.603 21.6146 14.2347C21.6146 13.8736 22.0946 13.3825 22.5746 13.3825C23.0473 13.3825 24.051 13.3825 24.9819 13.3825C24.9819 12.8986 24.9819 11.2159 24.9819 9.67035C23.7382 9.67035 22.3273 9.67035 21.7092 9.67035C17.0619 9.67757 17.171 13.2453 17.171 13.7797Z" fill="white"/>
</svg>

<svg width="40" height="40" fill="none" xmlns="http://www.w3.org/2000/svg"><path d="M20 38.35c10.283 0 18.618-8.279 18.618-18.49C38.618 9.65 30.283 1.373 20 1.373 9.717 1.372 1.382 9.65 1.382 19.861c0 10.21 8.335 18.488 18.618 18.488z" fill="#3F65A6"/><path d="M17.171 13.78v2.917h-2.153v3.568h2.153v9.779h4.422v-9.786h2.967s.276-1.712.415-3.582h-3.36v-2.441c0-.361.48-.852.96-.852h2.407V9.67h-3.273c-4.647.008-4.538 3.575-4.538 4.11z" fill="#fff"/></svg>
